src/people-body/person-gesture/1F481-200D-2642-FE0F.svg

<svg id="emoji" viewBox="0 0 72 72" xmlns="http://www.w3.org/2000/svg">
  <g id="grid">
    <path fill="#b3b3b3" d="M68,4V68H4V4H68m4-4H0V72H72V0Z"/>
    <path fill="none" stroke="#00a5ff" stroke-miterlimit="10" stroke-width="0.1" d="M12.923,10.9583H59.0769A1.9231,1.9231,0,0,1,61,12.8814V59.0352a1.9231,1.9231,0,0,1-1.9231,1.9231H12.9231A1.9231,1.9231,0,0,1,11,59.0352V12.8813A1.923,1.923,0,0,1,12.923,10.9583Z"/>
    <rect x="16" y="4" rx="2.2537" width="40" height="64" fill="none" stroke="#00a5ff" stroke-miterlimit="10" stroke-width="0.1"/>
    <rect x="16" y="4" rx="2.2537" width="40" height="64" transform="translate(72 0) rotate(90)" fill="none" stroke="#00a5ff" stroke-miterlimit="10" stroke-width="0.1"/>
    <circle cx="36" cy="36" r="29" fill="none" stroke="#00a5ff" stroke-miterlimit="10" stroke-width="0.1"/>
  </g>
  <g id="color">
    <path fill="#92d3f5" d="M11.9451,60.9583V56.74c0-4.9942,5.0078-9,10-9q9,7.5,18,0c1.3682,0,3.1221-.2784,4.3887.2607A11.8771,11.8771,0,0,1,47.57,50.8128V60.9583"/>
  </g>
  <g id="skin">
    <path fill="#fcea2b" d="M54.9451,60.9583,53.0076,46.6946l.9375-1.25,6-2,5-6a1.4142,1.4142,0,0,0-2-2l-3,3c-1,1-4,0-7,1s-5,3.2325-5,5V60.9583"/>
    <path fill="#fcea2b" d="M19.8857,31c-.1015,7.999,4.0635,14,11,14,7.0635,0,11.0635-6,11.0635-14,0-5-3-10-3-10-8,0-10,3-16,1A17.0768,17.0768,0,0,0,19.8857,31Z"/>
  </g>
  <g id="hair">
    <path fill="#f1b31c" d="M39.2274,19.6878c-7.473,0-8.7162,3.5912-16.36,1.88C19.4633,20.8056,20.9492,38,20.9492,38c-3,0-4-7-4-14,0-6,5-12,14-12s14,6,14,12c0,7-1,14-4,14C40.9492,38,41.6662,19.6878,39.2274,19.6878Z"/>
  </g>
  <g id="line">
    <path fill="none" stroke="#000" stroke-linecap="round" stroke-linejoin="round" stroke-width="2" d="M11.9451,60V57c0-4.9941,5.0078-9,10-9q9,7.5,18,0a10.2713,10.2713,0,0,1,4.0029.84"/>
    <path d="M36.8181,30a2,2,0,1,1-2-2,2,2,0,0,1,2,2"/>
    <path d="M28.8181,30a2,2,0,1,1-2-2,2,2,0,0,1,2,2"/>
    <path fill="none" stroke="#000" stroke-linecap="round" stroke-linejoin="round" stroke-width="2" d="M27.9451,38a6.5535,6.5535,0,0,0,6,0"/>
    <path fill="none" stroke="#000" stroke-linecap="round" stroke-linejoin="round" stroke-width="2" d="M54.9451,60,53.0076,46.6946l.9375-1.25,6-2,5-6a1.4142,1.4142,0,0,0-2-2l-3,3c-1,1-4,0-7,1s-5,3.2325-5,5V60"/>
    <path fill="none" stroke="#000" stroke-linecap="round" stroke-linejoin="round" stroke-width="2" d="M20.9492,38c-3,0-4-7-4-14,0-6,5-12,14-12s14,6,14,12c0,7-1,14-4,14"/>
    <path fill="none" stroke="#000" stroke-linejoin="round" stroke-width="2" d="M19.8857,31c-.1015,7.999,4.9365,14,11,14,5.9365,0,11.0635-6,11.0635-14,0-5-3-11-3-11-8,0-10,3-16,1C22.9492,21,19.9492,26,19.8857,31Z"/>
  </g>
</svg>

<svg viewBox="0 0 72 72" xmlns="http://www.w3.org/2000/svg"><path fill="#b3b3b3" d="M68 4v64H4V4h64m4-4H0v72h72V0z"/><path fill="none" stroke="#00a5ff" stroke-miterlimit="10" stroke-width=".1" d="M12.923 10.958h46.154A1.923 1.923 0 0161 12.881v46.154a1.923 1.923 0 01-1.923 1.923H12.923A1.923 1.923 0 0111 59.035V12.881a1.923 1.923 0 011.923-1.923z"/><rect x="16" y="4" rx="2.254" width="40" height="64" fill="none" stroke="#00a5ff" stroke-miterlimit="10" stroke-width=".1"/><rect x="16" y="4" rx="2.254" width="40" height="64" transform="rotate(90 36 36)" fill="none" stroke="#00a5ff" stroke-miterlimit="10" stroke-width=".1"/><circle cx="36" cy="36" r="29" fill="none" stroke="#00a5ff" stroke-miterlimit="10" stroke-width=".1"/><g stroke-linecap="round" stroke-miterlimit="10" stroke-width="6" stroke="#fff" fill="none" stroke-linejoin="round"><path d="M11.945 60v-3c0-4.994 5.008-9 10-9q9 7.5 18 0a10.271 10.271 0 014.003.84M36.818 30a2 2 0 11-2-2 2 2 0 012 2m-8 0a2 2 0 11-2-2 2 2 0 012 2m-.873 8a6.553 6.553 0 006 0m21 22l-1.937-13.305.937-1.25 6-2 5-6a1.414 1.414 0 00-2-2l-3 3c-1 1-4 0-7 1s-5 3.232-5 5V60"/><path d="M20.95 38c-3 0-4-7-4-14 0-6 5-12 14-12s14 6 14 12c0 7-1 14-4 14"/><path d="M19.886 31c-.102 7.999 4.936 14 11 14 5.936 0 11.063-6 11.063-14 0-5-3-11-3-11-8 0-10 3-16 1 0 0-3 5-3.063 10z"/></g><path fill="#92d3f5" d="M11.945 60.958V56.74c0-4.994 5.008-9 10-9q9 7.5 18 0c1.368 0 3.122-.278 4.389.26a11.877 11.877 0 013.236 2.813v10.145"/><path d="M54.945 60.958l-1.937-14.263.937-1.25 6-2 5-6a1.414 1.414 0 00-2-2l-3 3c-1 1-4 0-7 1s-5 3.232-5 5v16.513M19.886 31c-.102 7.999 4.063 14 11 14 7.063 0 11.063-6 11.063-14 0-5-3-10-3-10-8 0-10 3-16 1a17.077 17.077 0 00-3.063 9z" fill="#fcea2b"/><path fill="#f1b31c" d="M39.227 19.688c-7.473 0-8.716 3.591-16.36 1.88C19.463 20.806 20.95 38 20.95 38c-3 0-4-7-4-14 0-6 5-12 14-12s14 6 14 12c0 7-1 14-4 14 0 0 .717-18.312-1.722-18.312z"/><path fill="none" stroke="#000" stroke-linecap="round" stroke-linejoin="round" stroke-width="2" d="M11.945 60v-3c0-4.994 5.008-9 10-9q9 7.5 18 0a10.271 10.271 0 014.003.84"/><path d="M36.818 30a2 2 0 11-2-2 2 2 0 012 2m-8 0a2 2 0 11-2-2 2 2 0 012 2"/><path fill="none" stroke="#000" stroke-linecap="round" stroke-linejoin="round" stroke-width="2" d="M27.945 38a6.553 6.553 0 006 0m21 22l-1.937-13.305.937-1.25 6-2 5-6a1.414 1.414 0 00-2-2l-3 3c-1 1-4 0-7 1s-5 3.232-5 5V60M20.95 38c-3 0-4-7-4-14 0-6 5-12 14-12s14 6 14 12c0 7-1 14-4 14"/><path fill="none" stroke="#000" stroke-linejoin="round" stroke-width="2" d="M19.886 31c-.102 7.999 4.936 14 11 14 5.936 0 11.063-6 11.063-14 0-5-3-11-3-11-8 0-10 3-16 1 0 0-3 5-3.063 10z"/></svg>
